_includes/instagram.svg

<svg xmlns="http://www.w3.org/2000/svg" viewBox="0 0 36 36" enable-background="new 0 0 36 36"><path fill="#fff" d="M31.8 0h-27.6c-2.3 0-4.2 1.9-4.2 4.2v27.7c0 2.2 1.9 4.1 4.2 4.1h27.7c2.3 0 4.2-1.9 4.2-4.2v-27.6c-.1-2.3-2-4.2-4.3-4.2zm-13.8 11.1c3.8 0 6.9 3.1 6.9 6.9 0 3.8-3.1 6.9-6.9 6.9s-6.9-3.1-6.9-6.9 3.1-6.9 6.9-6.9zm13.8 19.4c0 .8-.6 1.4-1.4 1.4h-24.9c-.8 0-1.4-.6-1.4-1.4v-15.3h3.1c-.1.9-.3 1.8-.3 2.8 0 6.1 5 11.1 11.1 11.1s11.1-5 11.1-11.1c0-1-.1-1.9-.4-2.8h3.1v15.3zm0-20.8c0 .8-.6 1.4-1.4 1.4h-4.2c-.8 0-1.4-.6-1.4-1.4v-4.2c0-.8.6-1.4 1.4-1.4h4.2c.8 0 1.4.6 1.4 1.4v4.2z"/></svg>

<?xml version="1.0" encoding="utf-8"?>
<!-- Generator: Adobe Illustrator 18.0.0, SVG Export Plug-In . SVG Version: 6.00 Build 0)  -->
<!DOCTYPE svg PUBLIC "-//W3C//DTD SVG 1.1//EN" "http://www.w3.org/Graphics/SVG/1.1/DTD/svg11.dtd">
<svg version="1.1" id="Layer_1" xmlns="http://www.w3.org/2000/svg" xmlns:xlink="http://www.w3.org/1999/xlink" x="0px" y="0px"
	 viewBox="0 0 36 36" enable-background="new 0 0 36 36" xml:space="preserve">
<path fill="#FFFFFF" d="M31.8,0H4.2C1.9,0,0,1.9,0,4.2v27.7C0,34.1,1.9,36,4.2,36h27.7c2.3,0,4.2-1.9,4.2-4.2V4.2
	C36,1.9,34.1,0,31.8,0z M18,11.1c3.8,0,6.9,3.1,6.9,6.9c0,3.8-3.1,6.9-6.9,6.9s-6.9-3.1-6.9-6.9S14.2,11.1,18,11.1z M31.8,30.5
	c0,0.8-0.6,1.4-1.4,1.4H5.5c-0.8,0-1.4-0.6-1.4-1.4V15.2h3.1C7.1,16.1,6.9,17,6.9,18c0,6.1,5,11.1,11.1,11.1c6.1,0,11.1-5,11.1-11.1
	c0-1-0.1-1.9-0.4-2.8h3.1L31.8,30.5L31.8,30.5L31.8,30.5z M31.8,9.7c0,0.8-0.6,1.4-1.4,1.4h-4.2c-0.8,0-1.4-0.6-1.4-1.4V5.5
	c0-0.8,0.6-1.4,1.4-1.4h4.2c0.8,0,1.4,0.6,1.4,1.4V9.7z"/>
</svg>
